assets/img/bg-feed-1.svg

<svg height="440" viewBox="0 0 1440 440" width="1440" xmlns="http://www.w3.org/2000/svg"><g fill="none" fill-rule="evenodd" opacity=".7" transform="translate(-879.522887 -193)"><path d="m793.293878 193.208695c86.998321 85.715779 231.017322 118.024878 432.057012 96.927296 301.55954-31.646372 458.51839 85.105498 704.75935 55.247057 164.16064-19.905628 332.16891-54.776104 504.0248-104.611427l66.69696 294.286231c-241.91893 33.774443-442.96339 47.523498-603.13337 41.247165-240.25496-9.414499-269.56272-92.630598-658.37327-34.718781-259.207034 38.607878-407.884194 84.022756-446.031482 136.244635z" fill="#0275d8" fill-opacity=".3" transform="matrix(-1 0 0 1 3294.125882 0)"/><path d="m879.522887 193.208695c86.998321 85.715779 231.017323 118.024878 432.057013 96.927296 301.55954-31.646372 458.51839 85.105498 704.75935 55.247057 164.16064-19.905628 332.1689-134.776104 504.0248-344.61142708l66.69696 294.28623108c-183.78066 184.748969-355.75597 273.985287-515.92595 267.708954-240.25497-9.414499-356.77014-79.092387-745.58069-21.18057-259.20703 38.607878-407.884195 68.449552-446.031483 89.525021z" fill="#0275d8" fill-opacity=".3"/><g fill="#fff" fill-opacity=".5"><path d="m166 393.129669s139.060541 125.726734 352.959269 122.89458c142.530367-1.881767 260.535794-85.972034 450.520236-70.224116 128.291855 10.634833 281.559565 107.488802 424.823645 105.340926 146.32119-2.195394 299.56421-152.157004 522.38461-158.01139 222.8204-5.854385 414.83529 188.452295 592.9734 193.118697 306.04019 8.021268 517.31745-157.783297 522.38461-140.448233v364.920206l-2866.04577-28.823246z" opacity=".2"/><path d="m0 581.893646s405.11865-309.975292 765.552567-302.960093c287.070783 5.590378 246.096383 170.77091 399.800533 190.066447 153.70416 19.295537 162.34012-90.288345 310.81453-81.296847 148.4744 8.991498 206.16303 142.661002 345.10893 143.895241 135.36143 1.197938 249.4737-178.665216 465.91204-184.409874s280.34579 121.363838 374.70366 167.647812c146.74919 71.967042 204.15351 83.819373 204.15351 83.819373v96.99669l-2866.04577 15.697804z" opacity=".4"/></g></g></svg>

<?xml version="1.0" encoding="UTF-8"?>
<svg width="1440px" height="440px" viewBox="0 0 1440 440" version="1.1" xmlns="http://www.w3.org/2000/svg" xmlns:xlink="http://www.w3.org/1999/xlink">
    <!-- Generator: Sketch 45.2 (43514) - http://www.bohemiancoding.com/sketch -->
    <title>bg-1</title>
    <desc>Created with Sketch.</desc>
    <defs></defs>
    <g id="Page-1" stroke="none" stroke-width="1" fill="none" fill-rule="evenodd" opacity="0.7">
        <g id="bg-feed-1" transform="translate(0.000000, -236.000000)">
            <g id="bg-1" transform="translate(-879.522887, 43.000000)">
                <path d="M793.293878,193.208695 C880.292199,278.924474 1024.3112,311.233573 1225.35089,290.135991 C1526.91043,258.489619 1683.86928,375.241489 1930.11024,345.383048 C2094.27088,325.47742 2262.27915,290.606944 2434.13504,240.771621 L2500.832,535.057852 C2258.91307,568.832295 2057.86861,582.58135 1897.69863,576.305017 C1657.44367,566.890518 1628.13591,483.674419 1239.32536,541.586236 C980.118326,580.194114 831.441166,625.608992 793.293878,677.830871 L793.293878,193.208695 Z" id="wave-2" fill-opacity="0.299999982" fill="#0275D8" transform="translate(1647.062941, 435.519783) scale(-1, 1) translate(-1647.062941, -435.519783) "></path>
                <path d="M879.522887,193.208695 C966.521208,278.924474 1110.54021,311.233573 1311.5799,290.135991 C1613.13944,258.489619 1770.09829,375.241489 2016.33925,345.383048 C2180.49989,325.47742 2348.50815,210.606944 2520.36405,0.771620916 L2587.06101,295.057852 C2403.28035,479.806821 2231.30504,569.043139 2071.13506,562.766806 C1830.88009,553.352307 1714.36492,483.674419 1325.55437,541.586236 C1066.34734,580.194114 917.670175,610.035788 879.522887,631.111257 L879.522887,193.208695 Z" id="wave-1" fill-opacity="0.299999982" fill="#0275D8"></path>
                <path d="M166,393.129669 C166,393.129669 305.060541,518.856403 518.959269,516.024249 C661.489636,514.142482 779.495063,430.052215 969.479505,445.800133 C1097.77136,456.434966 1251.03907,553.288935 1394.30315,551.141059 C1540.62434,548.945665 1693.86736,398.984055 1916.68776,393.129669 C2139.50816,387.275284 2331.52305,581.581964 2509.66116,586.248366 C2815.70135,594.269634 3026.97861,428.465069 3032.04577,445.800133 L3032.04577,810.720339 L166,781.897093 L166,393.129669 Z" id="bg-2" fill-opacity="0.5" fill="#FFFFFF" style="mix-blend-mode: overlay;" opacity="0.200000003"></path>
                <path d="M-2.27373675e-13,581.893646 C-2.27373675e-13,581.893646 405.11865,271.918354 765.552567,278.933553 C1052.62335,284.523931 1011.64895,449.704463 1165.3531,469 C1319.05726,488.295537 1327.69322,378.711655 1476.16763,387.703153 C1624.64203,396.694651 1682.33066,530.364155 1821.27656,531.598394 C1956.63799,532.796332 2070.75026,352.933178 2287.1886,347.18852 C2503.62694,341.443862 2567.53439,468.552358 2661.89226,514.836332 C2808.64145,586.803374 2866.04577,598.655705 2866.04577,598.655705 L2866.04577,695.652395 L-2.27373675e-13,711.350199 L-2.27373675e-13,581.893646 Z" fill-opacity="0.5" fill="#FFFFFF" style="mix-blend-mode: overlay;" opacity="0.400000006"></path>
            </g>
        </g>
    </g>
</svg>
